frontend/svgs/biz014.svg

<?xml version="1.0" encoding="UTF-8"?> <svg width="100px" height="100px" viewBox="0 0 100 100" version="1.1" xmlns="http://www.w3.org/2000/svg" xmlns:xlink="http://www.w3.org/1999/xlink"> <g id="14.-Stock" stroke="none" stroke-width="1" fill="none" fill-rule="evenodd" stroke-linecap="round" stroke-linejoin="round"> <path d="M3,88.997152 C3,87.3418707 4.35010672,86 6,86 L19.2,86 C20.8568542,86 22.2,87.3416228 22.2,88.997152 L22.2,98 L3,98 L3,88.997152 Z" id="Layer-1" stroke="#6DAEFF" stroke-width="4" fill="#6DAEFF"></path> <path d="M22,72.9964905 C22,71.3415745 23.3501067,70 25,70 L38.2,70 C39.8568542,70 41.2,71.3504982 41.2,72.9964905 L41.2,98 L22,98 L22,72.9964905 Z" id="Layer-2" stroke="#54A0FF" stroke-width="4" fill="#54A0FF"></path> <path d="M41,37.0010118 C41,35.3435988 42.3501067,34 44,34 L57.2,34 C58.8568542,34 60.2,35.336731 60.2,37.0010118 L60.2,98 L41,98 L41,37.0010118 Z" id="Layer-3" stroke="#4A95F2" stroke-width="4" fill="#4A95F2"></path> <path d="M60,23.9948589 C60,22.340844 61.3501067,21 63,21 L76.2,21 C77.8568542,21 79.2,22.3364792 79.2,23.9948589 L79.2,98 L60,98 L60,23.9948589 Z" id="Layer-4" stroke="#448BE3" stroke-width="4" fill="#448BE3"></path> <path d="M79,5.00494794 C79,3.34536102 80.3501067,2 82,2 L95.2,2 C96.8568542,2 98.2,3.33876028 98.2,5.00494794 L98.2,98 L79,98 L79,5.00494794 Z" id="Layer-5" stroke="#3C7FD2" stroke-width="4" fill="#3C7FD2"></path> </g> </svg>

<svg width="100" height="100" xmlns="http://www.w3.org/2000/svg"><g fill="none" fill-rule="evenodd" stroke-linecap="round" stroke-linejoin="round" stroke-width="4"><path d="M3 88.997A3.003 3.003 0 016 86h13.2c1.657 0 3 1.342 3 2.997V98H3v-9.003z" stroke="#6DAEFF" fill="#6DAEFF"/><path d="M22 72.996A3.003 3.003 0 0125 70h13.2c1.657 0 3 1.35 3 2.996V98H22V72.996z" stroke="#54A0FF" fill="#54A0FF"/><path d="M41 37.001A3.005 3.005 0 0144 34h13.2c1.657 0 3 1.337 3 3.001V98H41V37.001z" stroke="#4A95F2" fill="#4A95F2"/><path d="M60 23.995A3.002 3.002 0 0163 21h13.2c1.657 0 3 1.336 3 2.995V98H60V23.995z" stroke="#448BE3" fill="#448BE3"/><path d="M79 5.005C79 3.345 80.35 2 82 2h13.2c1.657 0 3 1.339 3 3.005V98H79V5.005z" stroke="#3C7FD2" fill="#3C7FD2"/></g></svg>
